media/magic-button.svg

<?xml version="1.0" encoding="utf-8"?>
<!-- Generated by IcoMoon.io -->
<!DOCTYPE svg PUBLIC "-//W3C//DTD SVG 1.1//EN" "http://www.w3.org/Graphics/SVG/1.1/DTD/svg11.dtd">
<svg version="1.1" xmlns="http://www.w3.org/2000/svg" xmlns:xlink="http://www.w3.org/1999/xlink" width="26" height="28" viewBox="0 0 26 28">
<path d="M18.594 9.078l4.578-4.578-1.672-1.672-4.578 4.578zM25.578 4.5q0 0.422-0.281 0.703l-20.094 20.094q-0.281 0.281-0.703 0.281t-0.703-0.281l-3.094-3.094q-0.281-0.281-0.281-0.703t0.281-0.703l20.094-20.094q0.281-0.281 0.703-0.281t0.703 0.281l3.094 3.094q0.281 0.281 0.281 0.703zM4.469 1.531l1.531 0.469-1.531 0.469-0.469 1.531-0.469-1.531-1.531-0.469 1.531-0.469 0.469-1.531zM9.938 4.062l3.063 0.938-3.063 0.938-0.938 3.063-0.938-3.063-3.063-0.938 3.063-0.938 0.938-3.063zM24.469 11.531l1.531 0.469-1.531 0.469-0.469 1.531-0.469-1.531-1.531-0.469 1.531-0.469 0.469-1.531zM14.469 1.531l1.531 0.469-1.531 0.469-0.469 1.531-0.469-1.531-1.531-0.469 1.531-0.469 0.469-1.531z"></path>
</svg>

<svg xmlns="http://www.w3.org/2000/svg" width="26" height="28" viewBox="0 0 26 28"><path d="M18.594 9.078L23.172 4.5 21.5 2.828l-4.578 4.578zM25.578 4.5q0 .422-.281.703L5.203 25.297q-.281.281-.703.281t-.703-.281L.703 22.203q-.281-.281-.281-.703t.281-.703L20.797.703q.281-.281.703-.281t.703.281l3.094 3.094q.281.281.281.703zM4.469 1.531L6 2l-1.531.469L4 4l-.469-1.531L2 2l1.531-.469L4 0zm5.469 2.531L13.001 5l-3.063.938L9 9.001l-.938-3.063L4.999 5l3.063-.938L9 .999zm14.531 7.469L26 12l-1.531.469L24 14l-.469-1.531L22 12l1.531-.469L24 10zm-10-10L16 2l-1.531.469L14 4l-.469-1.531L12 2l1.531-.469L14 0z"/></svg>
